svg/furkot/freepik/sushi.svg

<svg viewBox="0 0 512 512" xmlns="http://www.w3.org/2000/svg"><path d="m181.19 170.821 122.615 145.944c1.332-2.253 3.716-4.397 7.8-5.947l-156.595-290.079c-7.289-13.596-24.216-18.707-37.814-11.418-13.602 7.287-18.71 24.214-11.423 37.812zm296.902 235.121-1.306-.301c-.627-.144-1.239-.264-1.86-.38l-1.912-.378c-14.015-2.978-28.354-4.498-42.588-4.498l-3.015.018c-17.648.263-34.019 1.806-49.491 4.519 9.311 10.691 23.08 27.731 4.593 43.917-.292.253-.584.424-.887.668-4.878 4.008-10.017 6.107-15.311 6.107-5.854 0-10.9-2.431-15.398-5.899-4.509-3.476-8.479-8.014-12.147-12.2l-15.141-16.332c-9.13 4.054-17.987 8.666-26.58 13.981-6.208 3.845-12.371 7.787-18.515 11.728-7.878 5.06-16.03 10.283-24.236 15.238-4.91 2.958-9.881 5.795-14.858 8.628-4.229 2.413-8.461 4.812-12.884 7.459-5.718 3.405-11.661 6.91-18.293 9.451.387.878 1.384 2.818 2.84 4.878 1.942 2.762 7.713 8.714 13.876 10.814 3.313 1.123 7.175 1.823 11.58 2.07 23.728 1.397 56.34-10.189 57.692-10.623 18.101-6.901 68.029-15.776 68.472-15.823 38.972-5.679 86.399-7.325 86.842-7.383l.304-.02c.161-.009 7.22-.972 13.533-6.107 8.964-7.285 11.517-17.984 11.666-18.62 1.757-7.09 2.832-13.913 3.506-20.285.641-7.845.641-14.831.415-20.434-.266-.051-.682-.145-.897-.193zm33.74-5.963c-1.19-3.102-2.683-5.652-2.683-5.652-7.287-13.876-15.539-25.458-24.396-35.161-2.287-2.513-3.932-3.725-4.887-3.725-1.312 0-1.265 2.353.33 6.825 1.023 2.846 1.846 5.538 2.525 8.016 1.097 4.054 1.276 6.098.718 6.098-.509 0-1.646-1.777-3.245-5.38-3.582-8.099-7.561-15.29-11.68-21.635-4.424-6.825-14.009-15.747-21.153-19.615-3.732-2.023-7.496-3.847-11.256-5.47-2.138-.92-3.791-1.364-4.957-1.364-2.907 0-2.72 2.725.767 7.363 8.226 10.967 13.838 22.459 17.367 31.108 1.624 3.99 2.02 6.001 1.397 6.001-.551 0-1.919-1.61-3.95-4.849-11.06-17.693-22.929-30.54-34.199-39.868-6.257-5.19-18.335-9.898-26.438-10.568-3.38-.285-6.692-.453-9.875-.538-.285-.009-.566-.009-.841-.009-7.307 0-7.505 2.882-.843 7.015 20.368 12.596 30.833 29.299 36.004 41.001 1.767 4.008 2.06 6.058 1.23 6.058-.719 0-2.272-1.51-4.413-4.582-15.069-21.457-33.151-34.369-49.889-42.138-6.163-2.864-13.765-4.405-18.338-4.405-.897 0-1.675.059-2.296.182-4.394.843-6.871 1.53-6.871 1.53-4.48.917-8.848 1.951-13.099 3.063-.227.056-.397.133-.607.2-6.444 1.889-5.526 4.77 1.845 7.485 1.002.365 1.891.82 2.844 1.217 22.827 9.302 37.015 25.741 44.594 37.336 2.429 3.723 3.148 5.634 2.401 5.634-.623 0-2.249-1.321-4.743-4.043-11.593-12.612-23.847-21.193-35.864-27.083-2.174-1.056-4.336-2.043-6.489-2.931l13.722 16.335 36.156 43.025c18.277-3.611 37.098-5.405 56.53-5.699 1.057-.02 2.096-.02 3.157-.02 15.029 0 29.913 1.59 44.603 4.717 1.322.272 2.636.483 3.95.791 1.521.351 11.69 2.6 20.556 4.926 3.496.919 6.551 1.417 8.762 1.417 2.797-.018 4.237-.823 3.554-2.608zm-252.796-48.47-5.524-5.964c-3.186 2.957-1.299 5.285 5.226 5.926.096.009.195.029.298.038zm-9.976 84.709c-6.039-.794-12.031-1.155-17.915-1.155-15.94 0-31.05 2.599-44.146 6.098-5.43 1.445-10.51 3.024-15.185 4.67-7.676 2.674-16.679 10.508-20.791 16.606-4.114 6.098-1.317 11.553 6.579 13.499 10.337 2.562 20.393 5.7 31.254 5.7 2.023 0 4.064-.108 6.159-.349 3.298-.38 6.384-1.324 9.393-2.46 6.111-2.287 11.781-5.686 17.435-9.054 9.087-5.405 18.398-10.436 27.448-15.906 14.401-8.687 28.361-18.063 42.672-26.909 8.129-5.038 16.426-9.282 24.81-13.139l-49.131-53.092c-7.377-1.397-14.39-2.314-20.827-2.314-.117 0-.247 0-.358 0-8.119 0-19.774 4.688-25.903 9.848-4.297 3.611-8.314 7.3-12.055 10.917-5.085 4.913-4.264 7.932 1.341 7.932.843 0 1.783-.058 2.837-.2 4.715-.614 9.25-.89 13.61-.89 33.526 0 56.198 16.581 64.071 23.393.603.51 1.113.968 1.538 1.343.444.399.529.587.304.587-.199 0-.663-.161-1.332-.498-.861-.426-1.711-.834-2.563-1.222-22.53-10.889-42.837-14.71-60.247-14.71-9.679 0-18.458 1.183-26.22 2.978-7.918 1.824-18.227 9.376-22.825 16.081-2.615 3.806-4.84 7.314-6.697 10.404-3.54 5.906-2.864 9.829.894 9.829.675 0 1.46-.131 2.328-.394 3.554-1.087 7.027-2.015 10.436-2.771 9.957-2.167 19.257-3.026 27.725-3.026 15.102 0 27.52 2.705 36.2 5.437 5.941 1.861 7.037 3.111 3.593 3.111-1.076.026-2.546-.102-4.432-.344z"/><path d="m258.65 336.848 3.416 3.677 12.809 13.83 10.245 11.051 41.012 44.252 2.012 2.175 1.523 1.635 3.1 3.344.444.482 12.654 13.66c7.09 8.088 13.367 14.998 20.456 14.998 3.08 0 6.312-1.305 9.82-4.386 1.446-1.268 2.59-2.513 3.458-3.774 6.136-8.816-1.079-17.484-9.972-27.646l-2.563-3.043-.574-.688-2.923-3.489-3.492-4.161-2.743-3.278-53.812-64.037-4.647-5.549-4.377-5.21-79.836-95.013-165.702-197.193c-5.515-6.315-13.257-9.538-21.031-9.538-6.533 0-13.087 2.278-18.388 6.914-11.607 10.161-12.789 27.809-2.623 39.409l248.306 267.893z"/></svg>

<svg viewBox="0 0 512 512" xmlns="http://www.w3.org/2000/svg"><path d="M 181.19 170.821 L 303.805 316.765 C 305.137 314.512 307.521 312.368 311.605 310.818 L 155.01 20.739 C 147.721 7.143 130.794 2.032 117.196 9.321 C 103.594 16.608 98.486 33.535 105.773 47.133 L 181.19 170.821 Z M 478.092 405.942 L 476.786 405.641 C 476.159 405.497 475.547 405.377 474.926 405.261 L 473.014 404.883 C 458.999 401.905 444.66 400.385 430.426 400.385 L 427.411 400.403 C 409.763 400.666 393.392 402.209 377.92 404.922 C 387.231 415.613 401 432.653 382.513 448.839 C 382.221 449.092 381.929 449.263 381.626 449.507 C 376.748 453.515 371.609 455.614 366.315 455.614 C 360.461 455.614 355.415 453.183 350.917 449.715 C 346.408 446.239 342.438 441.701 338.77 437.515 L 323.629 421.183 C 314.499 425.237 305.642 429.849 297.049 435.164 C 290.841 439.009 284.678 442.951 278.534 446.892 C 270.656 451.952 262.504 457.175 254.298 462.13 C 249.388 465.088 244.417 467.925 239.44 470.758 C 235.211 473.171 230.979 475.57 226.556 478.217 C 220.838 481.622 214.895 485.127 208.263 487.668 C 208.65 488.546 209.647 490.486 211.103 492.546 C 213.045 495.308 218.816 501.26 224.979 503.36 C 228.292 504.483 232.154 505.183 236.559 505.43 C 260.287 506.827 292.899 495.241 294.251 494.807 C 312.352 487.906 362.28 479.031 362.723 478.984 C 401.695 473.305 449.122 471.659 449.565 471.601 L 449.869 471.581 C 450.03 471.572 457.089 470.609 463.402 465.474 C 472.366 458.189 474.919 447.49 475.068 446.854 C 476.825 439.764 477.9 432.941 478.574 426.569 C 479.215 418.724 479.215 411.738 478.989 406.135 C 478.723 406.084 478.307 405.99 478.092 405.942 Z M 511.832 399.979 C 510.642 396.877 509.149 394.327 509.149 394.327 C 501.862 380.451 493.61 368.869 484.753 359.166 C 482.466 356.653 480.821 355.441 479.866 355.441 C 478.554 355.441 478.601 357.794 480.196 362.266 C 481.219 365.112 482.042 367.804 482.721 370.282 C 483.818 374.336 483.997 376.38 483.439 376.38 C 482.93 376.38 481.793 374.603 480.194 371 C 476.612 362.901 472.633 355.71 468.514 349.365 C 464.09 342.54 454.505 333.618 447.361 329.75 C 443.629 327.727 439.865 325.903 436.105 324.28 C 433.967 323.36 432.314 322.916 431.148 322.916 C 428.241 322.916 428.428 325.641 431.915 330.279 C 440.141 341.246 445.753 352.738 449.282 361.387 C 450.906 365.377 451.302 367.388 450.679 367.388 C 450.128 367.388 448.76 365.778 446.729 362.539 C 435.669 344.846 423.8 331.999 412.53 322.671 C 406.273 317.481 394.195 312.773 386.092 312.103 C 382.712 311.818 379.4 311.65 376.217 311.565 C 375.932 311.556 375.651 311.556 375.376 311.556 C 368.069 311.556 367.871 314.438 374.533 318.571 C 394.901 331.167 405.366 347.87 410.537 359.572 C 412.304 363.58 412.597 365.63 411.767 365.63 C 411.048 365.63 409.495 364.12 407.354 361.048 C 392.285 339.591 374.203 326.679 357.465 318.91 C 351.302 316.046 343.7 314.505 339.127 314.505 C 338.23 314.505 337.452 314.564 336.831 314.687 C 332.437 315.53 329.96 316.217 329.96 316.217 C 325.48 317.134 321.112 318.168 316.861 319.28 C 316.634 319.336 316.464 319.413 316.254 319.48 C 309.81 321.369 310.728 324.25 318.099 326.965 C 319.101 327.33 319.99 327.785 320.943 328.182 C 343.77 337.484 357.958 353.923 365.537 365.518 C 367.966 369.241 368.685 371.152 367.938 371.152 C 367.315 371.152 365.689 369.831 363.195 367.109 C 351.602 354.497 339.348 345.916 327.331 340.026 C 325.157 338.97 322.995 337.983 320.842 337.095 L 334.564 353.43 L 370.72 396.455 C 388.997 392.844 407.818 391.05 427.25 390.756 C 428.307 390.736 429.346 390.736 430.407 390.736 C 445.436 390.736 460.32 392.326 475.01 395.453 C 476.332 395.725 477.646 395.936 478.96 396.244 C 480.481 396.595 490.65 398.844 499.516 401.17 C 503.012 402.089 506.067 402.587 508.278 402.587 C 511.075 402.569 512.515 401.764 511.832 399.979 L 511.832 399.979 Z M 259.036 351.509 L 253.512 345.545 C 250.326 348.502 252.213 350.83 258.738 351.471 C 258.834 351.48 258.933 351.5 259.036 351.509 Z M 249.06 436.218 C 243.021 435.424 237.029 435.063 231.145 435.063 C 215.205 435.063 200.095 437.662 186.999 441.161 C 181.569 442.606 176.489 444.185 171.814 445.831 C 164.138 448.505 155.135 456.339 151.023 462.437 C 146.909 468.535 149.706 473.99 157.602 475.936 C 167.939 478.498 177.995 481.636 188.856 481.636 C 190.879 481.636 192.92 481.528 195.015 481.287 C 198.313 480.907 201.399 479.963 204.408 478.827 C 210.519 476.54 216.189 473.141 221.843 469.773 C 230.93 464.368 240.241 459.337 249.291 453.867 C 263.692 445.18 277.652 435.804 291.963 426.958 C 300.092 421.92 308.389 417.676 316.773 413.819 L 267.642 360.727 C 260.265 359.33 253.252 358.413 246.815 358.413 C 246.698 358.413 246.568 358.413 246.457 358.413 C 238.338 358.413 226.683 363.101 220.554 368.261 C 216.257 371.872 212.24 375.561 208.499 379.178 C 203.414 384.091 204.235 387.11 209.84 387.11 C 210.683 387.11 211.623 387.052 212.677 386.91 C 217.392 386.296 221.927 386.02 226.287 386.02 C 259.813 386.02 282.485 402.601 290.358 409.413 C 290.961 409.923 291.471 410.381 291.896 410.756 C 292.34 411.155 292.425 411.343 292.2 411.343 C 292.001 411.343 291.537 411.182 290.868 410.845 C 290.007 410.419 289.157 410.011 288.305 409.623 C 265.775 398.734 245.468 394.913 228.058 394.913 C 218.379 394.913 209.6 396.096 201.838 397.891 C 193.92 399.715 183.611 407.267 179.013 413.972 C 176.398 417.778 174.173 421.286 172.316 424.376 C 168.776 430.282 169.452 434.205 173.21 434.205 C 173.885 434.205 174.67 434.074 175.538 433.811 C 179.092 432.724 182.565 431.796 185.974 431.04 C 195.931 428.873 205.231 428.014 213.699 428.014 C 228.801 428.014 241.219 430.719 249.899 433.451 C 255.84 435.312 256.936 436.562 253.492 436.562 C 252.416 436.588 250.946 436.46 249.06 436.218 Z"/><path d="M 258.65 336.848 L 262.066 340.525 L 274.875 354.355 L 285.12 365.406 L 326.132 409.658 L 328.144 411.833 L 329.667 413.468 L 332.767 416.812 L 333.211 417.294 L 345.865 430.954 C 352.955 439.042 359.232 445.952 366.321 445.952 C 369.401 445.952 372.633 444.647 376.141 441.566 C 377.587 440.298 378.731 439.053 379.599 437.792 C 385.735 428.976 378.52 420.308 369.627 410.146 L 367.064 407.103 L 366.49 406.415 L 363.567 402.926 L 360.075 398.765 L 357.332 395.487 L 303.52 331.45 L 298.873 325.901 L 294.496 320.691 L 214.66 225.678 L 48.958 28.485 C 43.443 22.17 35.701 18.947 27.927 18.947 C 21.394 18.947 14.84 21.225 9.539 25.861 C -2.068 36.022 -3.25 53.67 6.916 65.27 L 255.222 333.163 L 258.65 336.848 Z"/></svg>
